X: 91
T: No_51_Song_of_the_Little_Whirlwind.krn
N: Derived from No_51_Song_of_the_Little_Whirlwind.krn
%%abc-version 2.0
%%abcx-abcm2ps-target-version 5.9.1 (29 Sep 2008)
%%abc-creator hum2abc beta
%%abcx-conversion-date 2019/03/15 08:35:45
%%humdrum-veritas 755657089
%%humdrum-veritas-data 1504487134
%%linebreak <none>
%%barnumbers 0
L: 1/8
M: 2/4
K: B clef=bass
[K:clef=bass][M:2/4]z2z B, | 
C2B,B, | 
B,2B,B, | 
B,4 | 
z G, F,B, | 
B,4- | 
B,2(B,G,) | 
F,4 | 
F,4 | 
z2z B, | 
(B,2F,)F, | 
F,2F,F, ||  
[M:3/4]F,2z G, F,G, ||  
[M:2/4]F,4- | 
F,2(F,D,) | 
B,,4 | 
B,,4 | 
z C, B,,C, | 
B,,2B,,B,, ||  
[M:5/8]B,,2G,,F,,B,, ||  
[M:2/4]B,,4- | 
B,,2B,,G,, | 
F,,4 | 
F,,4 |]  



